X: 37
T:Self Dance. WCa.37
T:Sylph,The,aka. WCa.37
T:Plymouth Lasses,aka. WCa.37
M:6/8
Q:120
C:"Wm Calvert Book 1812"Plymouth Lasses,aka
S:Wm. Calvert MS, 1812, Leyburn, Yorks.
R:jig
O:England
A:North Yorkshire
N:Unnecessary Segno sign at end of A Strain...CGP...
Z:vmp.Chris Partington, May 2003
K:D
A|AFA dfa|agf efg|fed fdc|ceee2A|!
AFA dfa|agf efg|faf gec|ddd"$"d2::!
A|FAd dcB|BAGA2D|(F/G/)AD (F/G/)AD |CEEE2A|!
FAd dcB|BAGF2D|(F/G/)AF GEC|"NB"DDDD2:||
W:NB.Final bar=D2DDD in MS
